icons/svg/sport/ice_hockey.svg

<?xml version="1.0" encoding="UTF-8" standalone="no"?>
<!-- Created with Inkscape (http://www.inkscape.org/) -->

<svg
   xmlns:dc="http://purl.org/dc/elements/1.1/"
   xmlns:cc="http://creativecommons.org/ns#"
   xmlns:rdf="http://www.w3.org/1999/02/22-rdf-syntax-ns#"
   xmlns:svg="http://www.w3.org/2000/svg"
   xmlns="http://www.w3.org/2000/svg"
   xmlns:sodipodi="http://sodipodi.sourceforge.net/DTD/sodipodi-0.dtd"
   xmlns:inkscape="http://www.inkscape.org/namespaces/inkscape"
   version="1.0"
   width="580"
   height="580"
   id="svg2"
   sodipodi:version="0.32"
   inkscape:version="0.48.4 r9939"
   sodipodi:docname="paragliding.svg"
   inkscape:output_extension="org.inkscape.output.svg.inkscape">
  <metadata
     id="metadata2975">
    <rdf:RDF>
      <cc:Work
         rdf:about="">
        <dc:format>image/svg+xml</dc:format>
        <dc:type
           rdf:resource="http://purl.org/dc/dcmitype/StillImage" />
        <cc:license
           rdf:resource="http://web.resource.org/cc/PublicDomain" />
        <dc:language>en</dc:language>
        <dc:title></dc:title>
      </cc:Work>
    </rdf:RDF>
  </metadata>
  <sodipodi:namedview
     inkscape:window-height="1004"
     inkscape:window-width="1920"
     inkscape:pageshadow="2"
     inkscape:pageopacity="0.0"
     guidetolerance="10.0"
     gridtolerance="10.0"
     objecttolerance="10.0"
     borderopacity="1.0"
     bordercolor="#666666"
     pagecolor="#ffffff"
     id="base"
     inkscape:zoom="0.46083856"
     inkscape:cx="327.52596"
     inkscape:cy="287.94403"
     inkscape:window-x="1680"
     inkscape:window-y="0"
     inkscape:current-layer="svg2"
     showgrid="false"
     inkscape:window-maximized="1" />
  <defs
     id="defs4">
    <inkscape:perspective
       sodipodi:type="inkscape:persp3d"
       inkscape:vp_x="0 : 290 : 1"
       inkscape:vp_y="0 : 1000 : 0"
       inkscape:vp_z="580 : 290 : 1"
       inkscape:persp3d-origin="290 : 193.33333 : 1"
       id="perspective10" />
  </defs>
  <g
     id="g1327">
    <path
       d="M 66.275,1.768 C 24.94,1.768 1.704,23.139 1.704,66.804 l 0,450.123 c 0,40.844 20.895,62.229 62.192,62.229 l 452.024,0 c 41.307,0 62.229,-20.315 62.229,-62.229 l 0,-450.123 c 0,-42.601 -20.922,-65.036 -63.521,-65.036 -0.004,0 -448.495,-0.143 -448.353,0 z"
       style="fill:#111111;stroke:#eeeeee;stroke-width:3.40799999"
       id="path1329"
       inkscape:connector-curvature="0" />
  </g>
  <ellipse
     style="fill:none;stroke:#ffffff;stroke-width:2;stroke-miterlimit:10;stroke-opacity:1"
     sodipodi:ry="3"
     sodipodi:rx="6"
     sodipodi:cy="8"
     sodipodi:cx="7"
     stroke-miterlimit="10"
     cx="7"
     cy="8"
     rx="6"
     ry="3"
     id="ellipse3"
     transform="matrix(16.356621,0,0,16.356621,82.270913,77.363931)" />
  <path
     inkscape:connector-curvature="0"
     d="m 196.76729,257.28676 c -57.2482,0 -114.496377,-14.72096 -114.496377,-49.06987 0,9.81398 0,34.34891 0,44.16288 0,34.3489 32.713247,70.33347 114.496377,70.33347 81.7831,0 114.4963,-35.98457 114.4963,-70.33347 0,-9.81397 0,-34.3489 0,-44.16288 0,34.34891 -57.2482,49.06987 -114.4963,49.06987 z"
     id="path5"
     style="fill:#ffffff;fill-opacity:1" />
  <path
     inkscape:connector-curvature="0"
     d="m 497.72909,77.363931 h -34.3489 l -70.3335,243.713649 c -11.4496,39.25589 -47.4342,67.06214 -88.3257,67.06214 h -148.8453 c -31.0776,0 -57.248154,26.1706 -57.248154,57.24818 0,31.07758 26.170554,57.24817 57.248154,57.24817 h 127.5817 c 55.6125,0 104.6823,-35.98457 119.4033,-89.96142 l 6.5426,-24.53493 h 0 L 497.72909,77.363931 z M 294.90699,469.92283 h -114.4963 v -49.06986 h 114.4963 v 49.06986 z"
     id="path7"
     style="fill:#ffffff;fill-opacity:1" />
</svg>

<svg width="580" height="580" viewBox="0 0 580 580" fill="none" xmlns="http://www.w3.org/2000/svg">
<g clip-path="url(#clip0)">
<path d="M66.2751 1.76815C24.9401 1.76815 1.7041 23.1391 1.7041 66.8041V516.927C1.7041 557.771 22.5991 579.156 63.8961 579.156H515.92C557.227 579.156 578.149 558.841 578.149 516.927V66.8041C578.149 24.2031 557.227 1.76815 514.628 1.76815C514.624 1.76815 66.1331 1.62515 66.2751 1.76815V1.76815Z" fill="#111111" stroke="#EEEEEE" stroke-width="3.408"/>
<path d="M196.767 257.287C250.968 257.287 294.907 235.317 294.907 208.217C294.907 181.116 250.968 159.147 196.767 159.147C142.566 159.147 98.6274 181.116 98.6274 208.217C98.6274 235.317 142.566 257.287 196.767 257.287Z" stroke="white" stroke-width="32.7132" stroke-miterlimit="10"/>
<path d="M196.767 257.287C139.519 257.287 82.271 242.566 82.271 208.217C82.271 218.031 82.271 242.566 82.271 252.38C82.271 286.729 114.984 322.713 196.767 322.713C278.55 322.713 311.264 286.729 311.264 252.38C311.264 242.566 311.264 218.031 311.264 208.217C311.264 242.566 254.015 257.287 196.767 257.287Z" fill="white"/>
<path d="M497.729 77.3638H463.38L393.047 321.077C381.597 360.333 345.612 388.14 304.721 388.14H155.876C124.798 388.14 98.6274 414.31 98.6274 445.388C98.6274 476.465 124.798 502.636 155.876 502.636H283.457C339.07 502.636 388.14 466.651 402.861 412.674L409.403 388.14L497.729 77.3638ZM294.907 469.923H180.411V420.853H294.907V469.923Z" fill="white"/>
</g>
<defs>
<clipPath id="clip0">
<path d="M0 0H580V580H0V0Z" fill="white"/>
</clipPath>
</defs>
</svg>
